Origami/64x64/apps/freeplane.svg

<svg xmlns="http://www.w3.org/2000/svg" width="64" height="64" version="1">
 <path style="opacity:0.2" d="M 32.000877,5.0015346 C 16.489302,5.0015346 4.0016447,17.489192 4.0016447,33.000767 4.0016447,48.51234 16.489302,61 32.000877,61 47.512452,61 60.00011,48.51234 60.00011,33.000767 60.00011,17.489192 47.512452,5.0015346 32.000877,5.0015346 Z"/>
 <path style="fill:#fead38" d="m 32.000877,4.0015894 c -15.511575,0 -27.9992323,12.4876576 -27.9992323,27.9992326 0,15.511573 12.4876573,27.999233 27.9992323,27.999233 15.511575,0 27.999233,-12.48766 27.999233,-27.999233 0,-15.511575 -12.487658,-27.9992326 -27.999233,-27.9992326 z"/>
 <path style="fill:#3f3f3f" d="M 32.435632,4.0125267 A 42.004925,42.030774 0 0 0 5.4809009,40.961124 c 1.6322019,4.859767 4.5463061,9.111529 8.3587561,12.359036 A 42.004925,42.030774 0 0 1 13.801376,51.638566 42.004925,42.030774 0 0 1 49.483992,10.120953 C 44.803227,6.3813564 38.895541,4.1104234 32.435632,4.0125267 Z"/>
 <path style="fill:#3f3f3f" d="m 52.639376,13.090403 a 42.004925,42.030774 0 0 0 -34.638115,41.342616 42.004925,42.030774 0 0 0 0.0957,1.872995 c 2.593981,1.482277 5.438589,2.577085 8.473598,3.169055 A 42.004925,42.030774 0 0 1 58.1818,22.113593 c -1.267101,-3.37059 -3.157975,-6.420776 -5.542424,-9.02319 z"/>
 <path style="opacity:0.2;fill:#ffffff" d="M 32 4.0019531 C 16.488425 4.0019531 4.0019531 16.488425 4.0019531 32 C 4.0019531 32.109466 4.0116326 32.216286 4.0175781 32.324219 C 4.3751713 17.128349 16.715066 5 32 5 C 47.288854 5 59.630888 17.134597 59.982422 32.335938 C 59.988719 32.224116 60 32.113447 60 32 C 60 16.488425 47.511575 4.0019531 32 4.0019531 z"/>
 <circle style="opacity:0.2" cx="39.001" cy="36.001" r="11"/>
 <circle style="opacity:0.2" cx="56" cy="29.001" r="8"/>
 <circle style="fill:#ffffff" cx="39.001" cy="35.001" r="11"/>
 <circle style="fill:#3f3f3f" cx="37.001" cy="39.001" r="5"/>
 <circle style="fill:#ffffff" cx="56" cy="28.001" r="8"/>
 <circle style="fill:#3f3f3f" cx="54" cy="30.001" r="4"/>
 <path style="opacity:0.1" d="m 48.000439,54.333517 c 0,0 -3.581626,2.666593 -7.999781,2.666593 -4.418155,0 -7.999781,-5.054344 -7.999781,-7.999781 0,0 4.240138,3.089657 6.666486,3.99989 4.587466,1.720969 9.333076,1.333298 9.333076,1.333298 z"/>
 <path style="fill:#3f3f3f" d="m 48.000439,53.333571 c 0,0 -3.581626,2.666593 -7.999781,2.666593 -4.418155,0 -7.999781,-5.054343 -7.999781,-7.99978 0,0 4.240138,3.089657 6.666486,3.99989 4.587466,1.720969 9.333076,1.333297 9.333076,1.333297 z"/>
 <path style="opacity:0.2" d="m 15.809605,40.463407 c 6.159929,-2.942966 11.598132,-1.305555 12.146569,3.657256 0.548435,4.962814 -4.000576,11.37171 -10.160507,14.314677 C 11.635739,61.378304 0.57147991,52.102008 0.0230441,47.139196 -0.5253917,42.176384 9.6496769,43.406372 15.809605,40.463407 Z"/>
 <path style="fill:#cccccc" d="m 15.809605,39.463462 c 6.159929,-2.942966 11.598132,-1.305555 12.146569,3.657255 0.548435,4.962814 -4.000576,11.371711 -10.160507,14.314678 C 11.635739,60.378358 0.57147991,51.102063 0.0230441,46.139251 -0.5253917,41.176439 9.6496769,42.406427 15.809605,39.463462 Z"/>
 <path style="opacity:0.2;fill:#ffffff" d="M 21.494141 38.001953 C 19.775489 38.025016 17.831774 38.495277 15.810547 39.460938 C 9.6506192 42.403903 -0.52695144 41.177815 0.021484375 46.140625 C 0.025457177 46.176575 0.040785268 46.217175 0.046875 46.253906 C 0.77471363 42.321034 10.049314 43.213422 15.810547 40.460938 C 18.120521 39.357325 20.329606 38.901094 22.216797 39.019531 C 25.362112 39.216928 27.61621 41.019337 27.958984 44.121094 C 27.97044 44.224766 27.965782 44.332646 27.972656 44.4375 C 27.999977 43.991188 28.006297 43.549252 27.958984 43.121094 C 27.61621 40.019337 25.362112 38.216928 22.216797 38.019531 C 21.980898 38.004727 21.739662 37.998658 21.494141 38.001953 z"/>
</svg>

<svg width="64" height="64" version="1" xmlns="http://www.w3.org/2000/svg">
 <path d="m32.000877 5.0015346c-15.511575 0-27.999232 12.487657-27.999232 27.999232 0 15.511573 12.487657 27.999233 27.999232 27.999233s27.999233-12.48766 27.999233-27.999233c0-15.511575-12.487658-27.999232-27.999233-27.999232z" style="opacity:.2"/>
 <path d="m32.000877 4.0015894c-15.511575 0-27.999232 12.487658-27.999232 27.999233 0 15.511573 12.487657 27.999233 27.999232 27.999233s27.999233-12.48766 27.999233-27.999233c0-15.511575-12.487658-27.999233-27.999233-27.999233z" style="fill:#fead38"/>
 <path d="m32.435632 4.0125267a42.004925 42.030774 0 0 0 -26.954731 36.948597c1.6322019 4.859767 4.5463061 9.111529 8.3587561 12.359036a42.004925 42.030774 0 0 1 -0.038281 -1.681594 42.004925 42.030774 0 0 1 35.682616 -41.517613c-4.680765-3.7395966-10.588451-6.0105296-17.04836-6.1084263z" style="fill:#3f3f3f"/>
 <path d="m52.639376 13.090403a42.004925 42.030774 0 0 0 -34.638115 41.342616 42.004925 42.030774 0 0 0 0.0957 1.872995c2.593981 1.482277 5.438589 2.577085 8.473598 3.169055a42.004925 42.030774 0 0 1 31.611241 -37.361476c-1.267101-3.37059-3.157975-6.420776-5.542424-9.02319z" style="fill:#3f3f3f"/>
 <path d="M 32 4.0019531 C 16.488425 4.0019531 4.0019531 16.488425 4.0019531 32 C 4.0019531 32.109466 4.0116326 32.216286 4.0175781 32.324219 C 4.3751713 17.128349 16.715066 5 32 5 C 47.288854 5 59.630888 17.134597 59.982422 32.335938 C 59.988719 32.224116 60 32.113447 60 32 C 60 16.488425 47.511575 4.0019531 32 4.0019531 z" style="fill:#ffffff;opacity:.2"/>
 <circle cx="39.001" cy="36.001" r="11" style="opacity:.2"/>
 <circle cx="56" cy="29.001" r="8" style="opacity:.2"/>
 <circle cx="39.001" cy="35.001" r="11" style="fill:#ffffff"/>
 <circle cx="37.001" cy="39.001" r="5" style="fill:#3f3f3f"/>
 <circle cx="56" cy="28.001" r="8" style="fill:#ffffff"/>
 <circle cx="54" cy="30.001" r="4" style="fill:#3f3f3f"/>
 <path d="m48.000439 54.333517s-3.581626 2.666593-7.999781 2.666593-7.999781-5.054344-7.999781-7.999781c0 0 4.240138 3.089657 6.666486 3.99989 4.587466 1.720969 9.333076 1.333298 9.333076 1.333298z" style="opacity:.1"/>
 <path d="m48.000439 53.333571s-3.581626 2.666593-7.999781 2.666593-7.999781-5.054343-7.999781-7.99978c0 0 4.240138 3.089657 6.666486 3.99989 4.587466 1.720969 9.333076 1.333297 9.333076 1.333297z" style="fill:#3f3f3f"/>
 <path d="m15.809605 40.463407c6.159929-2.942966 11.598132-1.305555 12.146569 3.657256 0.548435 4.962814-4.000576 11.37171-10.160507 14.314677-6.159928 2.942964-17.224187-6.333332-17.772623-11.296144-0.5484358-4.962812 9.6266328-3.732824 15.786561-6.675789z" style="opacity:.2"/>
 <path d="m15.809605 39.463462c6.159929-2.942966 11.598132-1.305555 12.146569 3.657255 0.548435 4.962814-4.000576 11.371711-10.160507 14.314678-6.159928 2.942963-17.224187-6.333332-17.772623-11.296144-0.5484358-4.962812 9.6266328-3.732824 15.786561-6.675789z" style="fill:#cccccc"/>
 <path d="m21.494141 38.001953c-1.718652 0.023063-3.662367 0.493324-5.683594 1.458985-6.1599278 2.942965-16.337498 1.716877-15.789063 6.679687 0.003972802 0.03595 0.019300893 0.07655 0.025390625 0.113281 0.72783863-3.932872 10.002439-3.040484 15.763672-5.792968 2.309974-1.103613 4.519059-1.559844 6.40625-1.441407 3.145315 0.197397 5.399413 1.999806 5.742187 5.101563 0.011456 0.103672 0.006798 0.211552 0.013672 0.316406 0.027321-0.446312 0.033641-0.888248-0.013672-1.316406-0.342774-3.101757-2.596872-4.904166-5.742187-5.101563-0.235899-0.014804-0.477135-0.020873-0.722656-0.017578z" style="fill:#ffffff;opacity:.2"/>
</svg>
